X: 333
T: LOUGH SHEELING
T: Loch saileann
B: O'Neill's 333
M: 3/4
L: 1/8
Z: 1999 by John Chambers <jc@trillian.mit.edu>
N: "Slow"
K:Em
B>^d \
|e2 ef ge|d2 B2 GA/B/|c2 c2 BA|AB2 z2 Bd \
|e2 ef ge|d2 B2 G2|A3 GED|E3 z||
||BA \
|G2 GA BG|BA2 G2 GA/B/|c2 c2 BA|B2 z2 Bd \
|e3 fge|d2 B2 G2|A3 GED|.E2 .Ez||
